app/themes/uggwc_pro/assets/images/thema/Physik.svg

<svg width="16" height="16" viewBox="0 0 16 16" fill="none" xmlns="http://www.w3.org/2000/svg">
<path d="M13.075 4.93437C14.1781 4.675 15 3.68438 15 2.5C15 1.11875 13.8813 0 12.5 0C11.1438 0 10.0406 1.07812 10 2.42188L4.25625 4.72188C3.80312 4.275 3.18438 4 2.5 4C1.11875 4 0 5.11875 0 6.5C0 7.88125 1.11875 9 2.5 9C2.88125 9 3.24375 8.91562 3.56562 8.7625L8.11563 12.7437C8.04063 12.9812 8 13.2375 8 13.5C8 14.8813 9.11875 16 10.5 16C11.8813 16 13 14.8813 13 13.5C13 12.6344 12.5625 11.8719 11.8938 11.425L13.075 4.93437ZM4.88438 7.25625C4.95312 7.04063 4.99375 6.8125 5 6.57812L10.7437 4.28125C10.8562 4.39062 10.975 4.49062 11.1062 4.57812L9.925 11.0656C9.75313 11.1062 9.5875 11.1625 9.43125 11.2375L4.88438 7.25625Z" fill="#6E6CFF"/>
</svg>

<svg width="16" height="16" fill="none" xmlns="http://www.w3.org/2000/svg"><path d="M13.075 4.934A2.5 2.5 0 1 0 10 2.422l-5.744 2.3A2.5 2.5 0 1 0 2.5 9c.381 0 .744-.084 1.066-.238l4.55 3.982A2.5 2.5 0 1 0 13 13.5c0-.866-.438-1.628-1.106-2.075l1.181-6.49zm-8.19 2.322c.068-.215.109-.444.115-.678l5.744-2.297c.112.11.231.21.362.297l-1.181 6.488c-.172.04-.338.096-.494.171l-4.547-3.98z" fill="#6E6CFF"/></svg>
